X: 234
T: I Donated a Horse
C: Teton Sioux band 1911-1914
N: Derived from sioux229.krn
O: South Dakota, U.S.A.
N: Teton Sioux Music by Frances Densmore, 1918
Z: transcribed to **kern format by Craig Sapp
L: 1/8
M: 2/4
Q: 1/4=58
K: Bb clef=treble
%%linebreak <none>
G2G2 [I:setbarnb 2]| 
G D D/ C3/ | 
B, B,B,2- | 
B,4 ||  
[M:3/4]D F/ D/D3C[K:clef=bass] ||  
[M:2/4]C< B,B,2 | 
[M:3/4]G,/ G,/ G,G,4 | 
B,/ B,/ G,C4 ||  
[M:2/4]B,/ B,/ G, G, G, | 
G,4 | 
G,4 | 
D C B, B, ||  
[M:3/4]B,6 | 
F< D F< DD2 | 
D< C C< B, B,/ B,3/ ||  
[M:2/4]B, G,- G, G, | 
G,4 | 
(3B, B, G,C2 ||  
[M:3/4]C< B, B,< G, G, G, ||  
[M:2/4]G,4 | 
G,4 |]  



